X:520
T:Reel 520
M:4/4
K:Cmaj
L:1/8
cA|GCCC CB,CA,|G,CCE FEDC|F>D (3DDD DEFG|A>D (3DED E>D (3B,A,G, |C>C (3CCC ECGC|G,CCE FAGF|EDFE DCA,D|CB,CD C2|G2|cBcA BcdB|cBcA BGGB|cBce dcde|fded cBAB|cBcA BcdB|cBcA BGGc|ecdc BcdB|cBAG AFED|
